X: 482
T: Wushi chuchengdong
L: 1/8
M: 2/4
K: G
d d e B [I:setbarnb 1]| 
d ed2 | 
A d B d | 
E GA2 | 
d d e B | 
d ed2 | 
A d B d | 
E GA2 | 
d Bd2 | 
d e d B | 
d2E G | 
c2A G | 
E A G E | 
D4 |]

@@@ Tune index: 9356
